packages/ffe-icons/icons/filled/sm/gps_not_fixed.svg

<svg xmlns="http://www.w3.org/2000/svg" height="20" viewBox="0 -960 960 960" width="20"><path d="M454.001-104.001v-61.231q-119-10.846-198.462-90.307-79.461-79.462-90.307-198.462h-61.231q-11.05 0-18.524-7.418-7.475-7.418-7.475-18.384 0-10.966 7.475-18.581t18.524-7.615h61.231q10.846-119 90.307-198.962 79.462-79.961 198.462-89.807v-61.231q0-11.049 7.418-18.524 7.418-7.475 18.384-7.475 10.966 0 18.581 7.475t7.615 18.524v61.231q119 9.846 198.462 89.807 79.461 79.962 90.307 198.962h61.231q11.049 0 18.524 7.418 7.475 7.418 7.475 18.384 0 10.966-7.475 18.581t-18.524 7.615h-61.231q-10.846 119-90.307 198.462-79.462 79.461-198.462 90.307v61.231q0 11.05-7.418 18.524-7.418 7.475-18.384 7.475-10.966 0-18.581-7.475t-7.615-18.524ZM480-216q110 0 187-77t77-187q0-110-77-187t-187-77q-110 0-187 77t-77 187q0 110 77 187t187 77Z"/></svg>

<svg xmlns="http://www.w3.org/2000/svg" height="20" viewBox="0 -960 960 960" width="20"><path d="M454-104v-61.23q-119-10.85-198.46-90.31Q176.08-335 165.23-454H104q-11.05 0-18.52-7.42Q78-468.84 78-479.8q0-10.97 7.48-18.58Q92.95-506 104-506h61.23q10.85-119 90.31-198.96Q335-784.92 454-794.77V-856q0-11.05 7.42-18.52 7.42-7.48 18.38-7.48 10.97 0 18.58 7.48Q506-867.05 506-856v61.23q119 9.85 198.46 89.81Q783.92-625 794.77-506H856q11.05 0 18.52 7.42 7.48 7.42 7.48 18.38 0 10.97-7.48 18.58Q867.05-454 856-454h-61.23q-10.85 119-90.31 198.46Q625-176.08 506-165.23V-104q0 11.05-7.42 18.52Q491.16-78 480.2-78q-10.97 0-18.58-7.48Q454-92.95 454-104Zm26-112q110 0 187-77t77-187q0-110-77-187t-187-77q-110 0-187 77t-77 187q0 110 77 187t187 77Z"/></svg>
